X: 43564
T: Young Conor Of Lachineen
R: jig
M: 6/8
K: Fdorian
DEC DEF|GcA♮BGF|DEC DEF|GEC DB,A,|
G,CE B,DF|A,EG GFD|B,DF BFD|G,CB,♮ C3:|
EB,B, GB,B,|EB,B, GFE|F2F G♯FE|DEF B,CD|
ECD E2F|GcG GFD|B,DF BFD|G,CB, C3:|
cGG edc|BFF Bcd|cGG dcB|B♮cd c2d|
edc dcB|cBG GFD|B,DF BFD|G,CB, C3:|
G,CC ECC|GCC ECC|GB,B, DB,B,|FB,B, DB,G,|
G,A,A, EA,A,|FA,A, E,A,A,|B,DE DB,G,|B♮,DE GB,♮D:|

